docs/images/info-alt/2.svg

<svg width="52" height="82" viewBox="0 0 52 82" fill="none" xmlns="http://www.w3.org/2000/svg">
<path d="M0.780273 27.265L6.82158 81.34H45.2302L51.2191 27.265H0.780273ZM24.6269 37.4881C33.0821 42.7393 41.5373 37.4881 41.3714 35.8294L38.1543 74.3253H13.7883L10.593 35.4933C10.7938 35.3754 14.1812 31.0059 24.6269 37.4925V37.4881Z" fill="#2B3B46"/>
<path d="M10.4883 9.35937V1.99106H14.4954C21.7808 1.99106 26.7876 4.56211 26.7876 14.3269C26.7876 19.709 22.453 21.8436 19.7991 21.8436C12.7057 21.8436 10.4926 15.9594 10.4926 9.35937H10.4883Z" fill="#2B3B46"/>
<path d="M42.8231 0L27.9979 29.6439L35.9584 33.6249L50.7835 3.98109L42.8231 0Z" fill="#2B3B46"/>
</svg>

<svg xmlns="http://www.w3.org/2000/svg" width="52" height="82" fill="none"><path fill="#2B3B46" d="M.78 27.265 6.822 81.34H45.23l5.99-54.075zm23.847 10.223c8.455 5.251 16.91 0 16.744-1.659l-3.217 38.496H13.788l-3.195-38.832c.2-.118 3.588-4.487 14.034 2zM10.488 9.36V1.99h4.007c7.286 0 12.293 2.571 12.293 12.336 0 5.382-4.335 7.517-6.989 7.517-7.093 0-9.306-5.885-9.306-12.485z"/><path fill="#2B3B46" d="M42.823 0 27.998 29.644l7.96 3.98L50.783 3.982z"/></svg>
